app/assets/images/payment_icons/advcash.svg

<svg class="icon" width="38px" height="24px" viewBox="0 0 38 24" version="1.1" xmlns="http://www.w3.org/2000/svg" role="img" aria-labelledby="pi-advcash"><title id="pi-advcash">Advcash</title><path d="M810.666667 512m-507.733334 0a507.733333 507.733333 0 1 0 1015.466667 0 507.733333 507.733333 0 1 0-1015.466667 0Z" fill="#00C170" /><path d="M1139.2 550.4H896l42.666667 98.133333h128l72.533333-98.133333z m115.2-179.2H819.2l42.666667 98.133333h320l72.533333-98.133333z" fill="#00364F" /><path d="M819.2 102.4l-337.066667 738.133333h128l209.066667-477.866666 209.066667 477.866666h128L819.2 102.4z" fill="#FFFFFF" /><path d="M366.933333 371.2l72.533334 98.133333h422.4l-42.666667-98.133333H366.933333z m128 179.2l72.533334 98.133333H938.666667l-42.666667-98.133333h-401.066667z" fill="#00364F" /></svg>

<svg class="icon" width="38" height="24" viewBox="0 0 38 24" version="1.1" xmlns="http://www.w3.org/2000/svg" role="img" aria-labelledby="pi-advcash"><title id="pi-advcash">Advcash</title><path d="M302.93300000000005 512a507.733 507.733 0 101015.467 0 507.733 507.733 0 10-1015.467 0z" fill="#00C170"/><path d="M1139.2 550.4H896l42.667 98.133h128L1139.2 550.4zm115.2-179.2H819.2l42.667 98.133h320L1254.4 371.2z" fill="#00364F"/><path d="M819.2 102.4L482.133 840.533h128L819.2 362.667l209.067 477.866h128L819.2 102.4z" fill="#FFF"/><path d="M366.933 371.2l72.534 98.133h422.4L819.2 371.2H366.933zm128 179.2l72.534 98.133h371.2L896 550.4H494.933z" fill="#00364F"/></svg>
